SF_Symbols/waveform.slash.svg

<?xml version="1.0" encoding="UTF-8"?>
<svg xmlns="http://www.w3.org/2000/svg" xmlns:xlink="http://www.w3.org/1999/xlink" width="24" height="24" viewBox="0 0 24 24" version="1.1">
<g id="surface1">
<path style=" stroke:none;fill-rule:nonzero;fill:rgb(100%,100%,100%);fill-opacity:1;" d="M 2.007812 14.371094 C 2.265625 14.371094 2.476562 14.28125 2.648438 14.105469 C 2.816406 13.929688 2.902344 13.71875 2.902344 13.476562 L 2.902344 10.136719 C 2.902344 9.894531 2.816406 9.683594 2.648438 9.507812 C 2.476562 9.324219 2.265625 9.230469 2.007812 9.230469 C 1.757812 9.230469 1.546875 9.324219 1.378906 9.507812 C 1.210938 9.683594 1.125 9.894531 1.125 10.136719 L 1.125 13.476562 C 1.125 13.71875 1.210938 13.929688 1.378906 14.105469 C 1.546875 14.28125 1.757812 14.371094 2.007812 14.371094 Z M 5.714844 18.882812 C 5.96875 18.882812 6.183594 18.796875 6.351562 18.628906 C 6.53125 18.453125 6.617188 18.238281 6.617188 17.988281 L 6.617188 9.40625 L 4.84375 7.632812 L 4.84375 17.988281 C 4.84375 18.238281 4.921875 18.453125 5.085938 18.628906 C 5.253906 18.796875 5.464844 18.882812 5.714844 18.882812 Z M 9.417969 0.285156 C 9.167969 0.285156 8.960938 0.375 8.789062 0.550781 C 8.628906 0.71875 8.546875 0.929688 8.546875 1.179688 L 8.546875 4.664062 L 10.324219 6.441406 L 10.324219 1.179688 C 10.324219 0.929688 10.234375 0.71875 10.058594 0.550781 C 9.890625 0.375 9.675781 0.285156 9.417969 0.285156 Z M 9.417969 23.328125 C 9.675781 23.328125 9.890625 23.238281 10.058594 23.0625 C 10.234375 22.894531 10.324219 22.683594 10.324219 22.433594 L 10.324219 13.113281 L 8.546875 11.347656 L 8.546875 22.433594 C 8.546875 22.683594 8.628906 22.894531 8.789062 23.0625 C 8.960938 23.238281 9.167969 23.328125 9.417969 23.328125 Z M 13.148438 6.066406 C 12.890625 6.066406 12.675781 6.15625 12.507812 6.332031 C 12.339844 6.5 12.253906 6.710938 12.253906 6.960938 L 12.253906 8.382812 L 14.03125 10.15625 L 14.03125 6.960938 C 14.03125 6.710938 13.945312 6.5 13.777344 6.332031 C 13.605469 6.15625 13.398438 6.066406 13.148438 6.066406 Z M 13.148438 18.496094 C 13.398438 18.496094 13.605469 18.410156 13.777344 18.242188 C 13.945312 18.066406 14.03125 17.851562 14.03125 17.601562 L 14.03125 16.820312 L 12.253906 15.042969 L 12.253906 17.601562 C 12.253906 17.851562 12.339844 18.066406 12.507812 18.242188 C 12.683594 18.410156 12.898438 18.496094 13.148438 18.496094 Z M 16.851562 2.722656 C 16.59375 2.722656 16.382812 2.8125 16.214844 2.988281 C 16.050781 3.164062 15.96875 3.375 15.96875 3.617188 L 15.96875 12.089844 L 17.746094 13.863281 L 17.746094 3.617188 C 17.746094 3.375 17.65625 3.164062 17.480469 2.988281 C 17.3125 2.8125 17.101562 2.722656 16.851562 2.722656 Z M 20.558594 8.28125 C 20.308594 8.28125 20.097656 8.371094 19.929688 8.546875 C 19.761719 8.722656 19.675781 8.933594 19.675781 9.175781 L 19.675781 14.4375 C 19.675781 14.679688 19.761719 14.890625 19.929688 15.066406 C 20.097656 15.234375 20.308594 15.320312 20.558594 15.320312 C 20.808594 15.320312 21.019531 15.234375 21.1875 15.066406 C 21.363281 14.890625 21.453125 14.679688 21.453125 14.4375 L 21.453125 9.175781 C 21.453125 8.933594 21.363281 8.722656 21.1875 8.546875 C 21.019531 8.371094 20.808594 8.28125 20.558594 8.28125 Z M 21.628906 22.289062 C 21.796875 22.453125 22 22.53125 22.234375 22.53125 C 22.46875 22.53125 22.667969 22.453125 22.832031 22.289062 C 22.992188 22.121094 23.074219 21.917969 23.074219 21.683594 C 23.082031 21.449219 23 21.25 22.832031 21.089844 L 3.054688 1.300781 C 2.886719 1.140625 2.679688 1.058594 2.4375 1.058594 C 2.203125 1.050781 2.003906 1.132812 1.84375 1.300781 C 1.679688 1.464844 1.597656 1.664062 1.597656 1.90625 C 1.597656 2.144531 1.679688 2.34375 1.84375 2.503906 Z M 21.628906 22.289062 "/>
</g>
</svg>

<svg xmlns="http://www.w3.org/2000/svg" width="24" height="24"><path style="stroke:none;fill-rule:nonzero;fill:#fff;fill-opacity:1" d="M2.008 14.371c.258 0 .469-.09.64-.266a.9.9 0 0 0 .254-.628v-3.34a.883.883 0 0 0-.254-.63.852.852 0 0 0-.64-.277.815.815 0 0 0-.63.278.883.883 0 0 0-.253.629v3.34c0 .242.086.453.254.628a.85.85 0 0 0 .629.266Zm3.707 4.512a.863.863 0 0 0 .637-.254.861.861 0 0 0 .265-.64V9.405L4.844 7.633v10.355c0 .25.078.465.242.64a.86.86 0 0 0 .629.255ZM9.418.285c-.25 0-.457.09-.629.266a.872.872 0 0 0-.242.629v3.484l1.777 1.777V1.18c0-.25-.09-.461-.265-.63a.84.84 0 0 0-.641-.265Zm0 23.043c.258 0 .473-.09.64-.265a.85.85 0 0 0 .266-.63v-9.32l-1.777-1.765v11.086c0 .25.082.46.242.628a.85.85 0 0 0 .629.266Zm3.73-17.262a.847.847 0 0 0-.64.266.86.86 0 0 0-.254.629v1.422l1.777 1.773V6.961c0-.25-.086-.461-.254-.629a.85.85 0 0 0-.629-.266Zm0 12.43c.25 0 .457-.086.63-.254a.894.894 0 0 0 .253-.64v-.782l-1.777-1.777v2.559c0 .25.086.464.254.64.176.168.39.254.64.254Zm3.704-15.773a.838.838 0 0 0-.637.265.892.892 0 0 0-.246.63v8.472l1.777 1.773V3.617a.865.865 0 0 0-.266-.629.85.85 0 0 0-.628-.265Zm3.707 5.558c-.25 0-.461.09-.63.266a.883.883 0 0 0-.253.629v5.261a.867.867 0 0 0 .883.883c.25 0 .46-.086.628-.254a.865.865 0 0 0 .266-.629V9.177a.856.856 0 0 0-.265-.63.85.85 0 0 0-.63-.265Zm1.07 14.008c.16.16.379.246.605.242a.816.816 0 0 0 .598-.242.85.85 0 0 0 .242-.605.76.76 0 0 0-.242-.594L3.055 1.3a.861.861 0 0 0-.618-.241.76.76 0 0 0-.593.242.838.838 0 0 0-.246.605c0 .239.082.438.246.598Zm0 0"/></svg>
